icons/svg/text-case-lowercase.svg

<svg width="24" height="24" viewBox="0 0 24 24" fill="none" xmlns="http://www.w3.org/2000/svg">
<path d="M9.81 12.9185L9.7359 12.9044C6.68696 12.3259 3.06 12.4145 3.06 15.4592C3.06 16.3134 3.55104 17.1167 4.26617 17.5541C4.97557 17.9881 5.87006 18 6.7062 18C7.8553 18 9.11597 17.35 9.62022 16.3377C9.71634 16.1447 9.78189 15.9255 9.81 15.6808V14.5138M9.81 12.9185V12.31C9.81 11.5481 9.71987 10.542 9.26278 9.92594C8.76577 9.25601 7.88391 8.5 6.435 8.5C4.04195 8.5 3.26935 10.1544 3.26935 10.1544M9.81 12.9185V14.5138M9.81 17.8966V14.5138" stroke="currentColor" stroke-width="1.5" stroke-linecap="round" stroke-linejoin="round"/>
<path d="M13.56 6.5V18" stroke="currentColor" stroke-width="1.5" stroke-linecap="round" stroke-linejoin="round"/>
<path d="M21.56 14C21.56 16.2091 19.7691 18 17.56 18C15.3509 18 13.56 16.2091 13.56 14C13.56 11.7909 15.3509 10 17.56 10C19.7691 10 21.56 11.7909 21.56 14Z" stroke="currentColor" stroke-width="1.5" stroke-linecap="round" stroke-linejoin="round"/>
</svg>

<svg xmlns="http://www.w3.org/2000/svg" width="24" height="24" fill="none" viewBox="0 0 24 24"><path stroke="currentColor" stroke-linecap="round" stroke-linejoin="round" stroke-width="1.5" d="m9.81 12.919-.074-.015c-3.049-.578-6.676-.49-6.676 2.555 0 .854.491 1.658 1.206 2.095.71.434 1.604.446 2.44.446 1.15 0 2.41-.65 2.914-1.662q.146-.29.19-.657v-1.167m0-1.595v-.609c0-.762-.09-1.768-.547-2.384-.497-.67-1.38-1.426-2.828-1.426-2.393 0-3.166 1.654-3.166 1.654M9.81 12.92v1.595m0 3.383v-3.383M13.56 6.5V18m8-4a4 4 0 1 1-8 0 4 4 0 0 1 8 0"/></svg>
